X:1
T:Lisa O'Leary's
L:1/8
M:2/4
I:linebreak $
K:D
V:1 treble 
V:1
|: A | d/e/d/c/ BA | FA DA | E/F/G/A/ Bc | BA FA | d/e/d/c/ BA | FA DA | GB A/G/F/E/ | FD D ::$ e | %10
 f/g/f/e/ dA | BA FD | E/F/G/A/ Bc | BA FA | f/g/f/e/ dA | Bg fe | d/e/f/g/ ac | ed d :| %18
